X:1
T:Song to the Moon
T:Song to the Moon
T:Antonin Dvorak, 1901 Arranged and abbreviated by Colin Hume, 2016
C:Antonin Dvorak, 1901
C:Arranged and abbreviated by Colin Hume, 2016
%%score 1 { 2 3 }
L:1/8
Q:1/4=100
M:3/4
K:G
V:1 treble 
V:2 treble 
V:3 bass 
V:1
|: z6 :| B2 B2 A2 | B2 d2 A2 | BG E2 G2- | G2 z2 z2 | A2 A2 B2 | A2 A2 B2 | cA- A4 | z6 |] %9
 B2 B2 A2 | c4 B2 | ec d4 | z6 | d2 c2 B2 | B2 e2 FG | B A3 z2 | z6 |] d2 d2 c2 | e4 d2 | fd e4 | %20
 z6 | e2 d2 B2 | dc B2 AD | A2 G4 | z6 |] G2 g3 g | fd f4 | c/d/e- e2 dc | B4 z2 | B2 A2 B2 | %30
 d2 c2 BA | G/A/B- B4 | AF G3 z |] g2 a2 g2 | (3fed f4 | c/d/e- e2 d/e/d/c/ | B4 z2 | B2 A2 B2 | %38
 d2 c2 BA | G/A/B- B4 | A2 G3 z |] %41
V:2
|:"^INTRO\n(4 times)" [DGB]4 [DFA][DGB] :| [DGB]4 [DFA][DGB] | [DGB]4 [DFA][DGB] | %3
 [DGB]2 [EGc]2 [DGB][EGc] | [DGB]2 [EA]2 [EG]2 | [DFA]4 [GB][FA] | [DFA]4 [GB][FA] | [Ec]4 [CA]2 | %8
 [DFB]2 [Bd]2 [DFc]A |] [GB]2 [GB]2 [FA][Ac] | [Ac]2 [Ac]2 [GB]e | [Ae][Ec] [FAd]2 FA | %12
 [Ae][Ec] [FAd]4 | [Gd]2 [Ac]2 [GB]2 | [DB-]2 [^CB]2 AG | [GB]2 [FA]2 [GB]2 | [Ac]2 [GB]2 [FA]2 |] %17
 [Dd]4 [Ec]2 | [Ee]4 [Gd]2 | [Ff]d [Ge]4 | [df][B^d] [ce]4 | [=Fe]2 d2 [DB]F | [CE]=F [D^F]4 | %23
 [B,A]2 GF GA | ^AB- Bc ^cd |] [B,DG]2 [Bdg]3 [Bdg] | [Bdf][Bd] [Bdf]4 | %27
 [EGc]/d/[Gce]- [Gce]2 [EGd][EGc] | [E^GB]4 EG | [E=GB]2 [FA]2 [EGB]2 | [EBd]2 [EAc]2 [DB][CA] | %31
 [B,DG]/A/[DGB]- [DGB]4 | [CFA][CDF][B,DG]D (3GBd |] [Beg]2 [Bea]2 [Beg]2 | (3[Bdf]ed [Bdf]4 | %35
 [EGc]/d/[Gce]- [Gce]2 [EGd]/e/d/c/ | [E^GB]4 EG | [E=GB]2 [FA]2 [EGB]2 | [EBd]2 [EAc]2 [DB][CA] | %39
 [B,DG]/A/[DGB]- [DGB]4 | [CFA]2 [B,DG]2 z2 |] %41
V:3
|:"G" [G,B,]4 D,G, :|"G" [G,B,]4 D,G, |"G" [G,B,]4 D,G, |"G" [G,B,]2"C" C,2 G,C, | %4
"G" G,2"C" [C,G,]2"Em" [E,B,]2 |"D" D,4"G" G,D, |"D" D,4"G" G,D, |"Am" [A,,A,]4 [A,,G,]2 | %8
"D7" [D,C]4 A,C |]"G" [G,D]4"D" [D,D]2 |"Am" [A,E]4"Em" [E,B,]2 |"Am" [A,C]2"D" D4 |"C" C2"D7" D4 | %13
"G" [B,D]2 [G,D]4 |"A7" [E,G,]2- [A,,E,G,]4 |"G" [D,D]6- |"D" [D,D]6 |]"G" [B,,G,]4"Am" [A,,G,]2 | %18
"C" [C,G,]4"G" [B,,G,]2 |"Bm" [D,B,]B,,"C" [C,G,]4 |"^/" [C,G,]6 |"E7" [^G,B,]6 | %22
"Am" [A,,E,]2"D" [D,,D,]4 |"G" [G,,D,]6- |"^/" [G,,D,]2 z2 z2 |]"G" G,,B,, D,G, B,2 | %26
"Bm" B,,D, F,B, D2 |"C" C,,G,, C,E, G,2 |"E" E,,B,, E,^G, B,2 |"Em" E,,B,, E,F, =G,2 | %30
"Am" A,,E, A,C z2 |"G" D,,G,, D,G, B,2 |"D" [D,,D,]2"G" [G,,G,]2 z2 |]"Em" E,,G,, E,G, B,2 | %34
"Bm" B,,D, F,B, D2 |"C" C,,G,, C,E, G,2 |"E" E,,B,, E,^G, B,2 |"Em" E,,B,, E,F, =G,2 | %38
"Am" A,,E, A,C z2 |"G" D,,G,, D,G, B,2 |"D" [D,,D,]2"G" [G,,G,]2 z2 |] %41

